X:97
T:Farewell to Erin
Z: id:dc-reel-90
M:C
L:1/8
K:D Major
E|D2FD FAAe|fedf edBc|dBAF GFGB|AGFD EGFE|!
D2FD FAAe|fedf edBc|dBAF GFGB|AGFD EGF:|!
A|defg afdf|g2fg edBA|defg afdg|feed e3A|!
defg afdf|g2fg edBA|dBAF GFGB|AGFD EGF:|!

